dist/svgs/unicons/line/filter.svg

<svg xmlns="http://www.w3.org/2000/svg" viewBox="0 0 24 24"><path d="M19 2H5a3 3 0 00-3 3v1.17a3 3 0 00.25 1.2v.06a2.81 2.81 0 00.59.86L9 14.41V21a1 1 0 00.47.85A1 1 0 0010 22a1 1 0 00.45-.11l4-2A1 1 0 0015 19v-4.59l6.12-6.12a2.81 2.81 0 00.59-.86v-.06a3 3 0 00.29-1.2V5a3 3 0 00-3-3zm-5.71 11.29A1 1 0 0013 14v4.38l-2 1V14a1 1 0 00-.29-.71L5.41 8h13.18zM20 6H4V5a1 1 0 011-1h14a1 1 0 011 1z"/></svg>

<svg xmlns="http://www.w3.org/2000/svg" viewBox="0 0 24 24"><path d="M19,2H5A3,3,0,0,0,2,5V6.17a3,3,0,0,0,.25,1.2l0,.06a2.81,2.81,0,0,0,.59.86L9,14.41V21a1,1,0,0,0,.47.85A1,1,0,0,0,10,22a1,1,0,0,0,.45-.11l4-2A1,1,0,0,0,15,19V14.41l6.12-6.12a2.81,2.81,0,0,0,.59-.86l0-.06A3,3,0,0,0,22,6.17V5A3,3,0,0,0,19,2ZM13.29,13.29A1,1,0,0,0,13,14v4.38l-2,1V14a1,1,0,0,0-.29-.71L5.41,8H18.59ZM20,6H4V5A1,1,0,0,1,5,4H19a1,1,0,0,1,1,1Z"/></svg>
